logos/harness-icon.svg

<?xml version="1.0" encoding="UTF-8"?>
<svg width="256px" height="255px" viewBox="0 0 256 255" version="1.1" xmlns="http://www.w3.org/2000/svg" preserveAspectRatio="xMidYMid">
    <title>Harness</title>
    <g>
        <path d="M217.787355,131.99694 C216.222253,136.801562 213.686236,141.237682 210.334461,145.032011 L191.200019,164.060076 L154.198849,127.265784 L191.200019,90.4720795 L210.334461,109.131643 C213.686824,111.802249 216.17935,115.390875 217.503486,119.45438 C218.82821,123.517885 218.926947,127.878189 217.787355,131.99694 L217.787355,131.99694 Z M122.64233,216.570623 C117.925866,214.953801 113.590834,212.396038 109.90347,209.053667 L90.821923,190.078497 L127.822505,153.284793 L164.823675,190.078497 L145.63575,209.158869 C142.950451,212.492425 139.341255,214.970845 135.255416,216.287929 C131.16899,217.605012 126.784002,217.703162 122.64233,216.570623 L122.64233,216.570623 Z M37.5408732,121.956897 C39.1306593,117.140521 41.7037032,112.702638 45.0995569,108.921826 L64.2339992,89.9460689 L101.235169,126.740361 L64.2339992,163.534653 L45.0466619,144.454281 C41.691361,141.772508 39.1941332,138.17683 37.8611813,134.10686 C36.5282294,130.03689 36.4171501,125.668945 37.5408732,121.536676 L37.5408732,121.956897 Z M132.685899,36.9629938 C137.552231,38.5269202 142.035957,41.0876219 145.84733,44.4793615 L164.929465,63.4545314 L127.928295,100.248823 L90.9277128,63.4545314 L109.90347,44.90017 C112.589357,41.5660271 116.198553,39.0881941 120.284392,37.7705229 C124.370818,36.4534395 128.755219,36.3558777 132.896891,37.4884167 L132.685899,36.9629938 Z M236.7637,83.1132211 L171.959199,18.8811604 C164.369954,11.8261539 155.36195,6.45144262 145.52996,3.11259792 C123.488061,-4.19395326 101.604846,1.48284676 83.8444958,18.8811604 L18.9876873,83.1132211 C11.8950666,90.6619135 6.4909693,99.6193738 3.1297912,109.394354 C-4.21731276,131.31342 1.49122421,153.126696 18.9876873,170.788309 L83.4748191,235.177879 C91.0305641,242.351605 100.041507,247.835633 109.90347,251.262048 C115.916447,253.282046 122.216232,254.328778 128.562446,254.362865 C136.662421,254.200067 144.646027,252.41692 152.037798,249.120979 C159.429569,245.825038 166.079048,241.082715 171.589522,235.177879 L236.7637,170.998126 C243.953295,163.475881 249.449665,154.516657 252.885483,144.716992 C260.232587,122.797926 254.471155,100.98465 236.7637,83.3759325" fill="#00ADE5"></path>
    </g>
</svg>

<svg preserveAspectRatio="xMidYMid" viewBox="0 0 256 255" xmlns="http://www.w3.org/2000/svg">
  <path fill="#00ADE5" d="M217.787 131.997a37 37 0 0 1-7.453 13.035L191.2 164.06l-37.001-36.794L191.2 90.472l19.134 18.66a21.86 21.86 0 0 1 7.17 10.322 21.747 21.747 0 0 1 .283 12.543Zm-95.145 84.574a36.675 36.675 0 0 1-12.739-7.517l-19.081-18.976 37-36.793 37.002 36.793-19.188 19.08a21.99 21.99 0 0 1-10.38 7.13 22.113 22.113 0 0 1-12.614.283Zm-85.101-94.614a36.743 36.743 0 0 1 7.559-13.035l19.134-18.976 37.001 36.794-37.001 36.795-19.187-19.08a22.026 22.026 0 0 1-7.186-10.348 21.907 21.907 0 0 1-.32-12.57v.42Zm95.145-84.994a36.68 36.68 0 0 1 13.161 7.516l19.082 18.976-37 36.794-37.001-36.794L109.903 44.9a21.996 21.996 0 0 1 10.381-7.13 22.111 22.111 0 0 1 12.613-.282l-.211-.525Zm104.078 46.15-64.805-64.232A73.553 73.553 0 0 0 145.53 3.113c-22.042-7.307-43.925-1.63-61.686 15.768L18.988 83.113A73.094 73.094 0 0 0 3.13 109.394c-7.347 21.92-1.639 43.733 15.858 61.394l64.487 64.39a73.337 73.337 0 0 0 26.428 16.084 59.601 59.601 0 0 0 18.66 3.1 60.642 60.642 0 0 0 23.475-5.241 60.367 60.367 0 0 0 19.552-13.943l65.174-64.18a72.994 72.994 0 0 0 16.121-26.281c7.348-21.92 1.586-43.732-16.121-61.341"/>
</svg>
